assets/icons/24px/stroke/check-with-circle-24px.svg

<svg width="24" height="24" viewBox="0 0 24 24" fill="none" xmlns="http://www.w3.org/2000/svg">
<path fill-rule="evenodd" clip-rule="evenodd" d="M12 4C7.58172 4 4 7.58172 4 12C4 16.4183 7.58172 20 12 20C16.4183 20 20 16.4183 20 12C20 7.58172 16.4183 4 12 4ZM2 12C2 6.47715 6.47715 2 12 2C17.5228 2 22 6.47715 22 12C22 17.5228 17.5228 22 12 22C6.47715 22 2 17.5228 2 12Z" fill="white"/>
<path fill-rule="evenodd" clip-rule="evenodd" d="M16.03 7.65201C16.4983 7.94472 16.6407 8.56167 16.348 9.03001L12.0956 15.8338C12.0868 15.8478 12.078 15.862 12.0691 15.8763C11.9228 16.1106 11.7603 16.3709 11.5942 16.5663C11.4032 16.791 11.0647 17.1037 10.5369 17.1344C10.009 17.1651 9.63658 16.8937 9.42082 16.6926C9.23317 16.5178 9.04161 16.2781 8.86915 16.0623C8.85866 16.0492 8.84823 16.0361 8.83788 16.0232L7.71911 14.6247C7.3741 14.1934 7.44402 13.5642 7.87528 13.2191C8.30654 12.8741 8.93584 12.9441 9.28084 13.3753L10.3996 14.7738L14.652 7.97001C14.9447 7.50168 15.5616 7.3593 16.03 7.65201ZM10.0618 15.2804C10.0618 15.2804 10.0624 15.2798 10.0636 15.2786C10.0624 15.2799 10.0618 15.2805 10.0618 15.2804ZM10.7919 15.2363C10.7932 15.2373 10.7938 15.2379 10.7938 15.2379C10.7938 15.2379 10.7932 15.2374 10.7919 15.2363Z" fill="white"/>
</svg>

<svg width="24" height="24" fill="none" xmlns="http://www.w3.org/2000/svg"><path fill-rule="evenodd" clip-rule="evenodd" d="M12 4a8 8 0 1 0 0 16 8 8 0 0 0 0-16zM2 12C2 6.477 6.477 2 12 2s10 4.477 10 10-4.477 10-10 10S2 17.523 2 12z" fill="#fff"/><path fill-rule="evenodd" clip-rule="evenodd" d="M16.03 7.652a1 1 0 0 1 .318 1.378l-4.252 6.804-.027.042c-.146.235-.309.495-.475.69-.19.225-.53.538-1.057.568-.528.031-.9-.24-1.116-.441-.188-.175-.38-.415-.552-.63l-.031-.04-1.119-1.398a1 1 0 0 1 1.562-1.25l1.119 1.399 4.252-6.804a1 1 0 0 1 1.378-.318zm-5.968 7.628l.002-.001a.01.01 0 0 1-.002.001zm.73-.044a.021.021 0 0 1 .002.002l-.002-.002z" fill="#fff"/></svg>
